X:1
T:Minuetto
T:dal Concerto per Grande Organo
T:Luigi Boccherini (1743-1805)
%%score 1 { 2 | 3 }
L:1/8
M:3/4
K:A
V:1 treble-8 nm="Guitar" snm="Guit."
V:2 bass nm="Organ" snm="Org."
V:3 bass 
V:1
 a/g/a/b/ | a A2 c2 e | ed d2 d/c/d/e/ | d E2 B2 d | dc c2 a>f | e^d dd a>f | e^d dd a>f | %7
 ge ca f2 | e2 E z :: =c>E | BE EE A>E | GE EE =c>E | BE EE A>E | GE EE a/g/a/b/ | a A2 c2 e | %15
 ed d2 d/c/d/e/ | d E2 B2 d | dc c2 d>B | AG GG d>B | AG GG d>B | cA Fd B2 | A2 A, z ::[K:D] .D.E | %23
 .F.G .A.B .c.d | eg/f/ ee/d/ cc/B/ | AB/c/ d/e/f/g/ aA | fA/G/ FF/E/ D z | .f.e .d.c .B.A | %28
 ^G G2 G2 G | ce ed cB | .A.E C z :: z2 | z A aa f' z | z A aa f' z | z A aa f' z | %35
 (6:4:6E/F/E/D/E/F/ EA z2 | z A aa f' z | z A aa f' z | z A aa f' z | (6:4:6E/F/E/D/E/F/ A z de | %40
 fg ab c'd' | e'g/f/ ee/d/ cc/B/ | AB/c/ d/e/f/g/ aA | ff/g/ ag fe | dc BA GF | E E2 E2 E | %46
 FA AG FE | DF D z!D.C.! :| %48
V:2
 z2 | z [E,E] [A,C][E,E] [A,C][E,E] | z [E,E] [G,B,][E,E] [G,B,][E,E] | %3
 z E, [G,B,][E,E] [G,B,][E,E] | z [E,E] [A,C][E,E] z [CA] | z [B,A] [A,F][B,A] z [B,A] | %6
 z [B,A] [A,F][B,A] z [B,A] | z [B,EG] z [CEA] z [A,B,^D] | z [G,B,E] z2 :: EE, | %10
 DE, z [E,D] z [E,=C] | z [G,B,] E,[G,B,] EE, | DE, z [E,D] z [E,=C] | %13
 z [G,B,] E,[G,B,] [E,C][A,E] | z [E,E] [A,C][E,E] [A,C][E,E] | z [E,E] [A,C][E,E] [A,C][E,E] | %16
 z E, [G,B,][E,E] [G,B,][E,E] | z [E,E] [A,C][E,E] z [F,B,D] | z [E,D] B,[E,D] G,[E,D] | %19
 z [E,D] B,[E,D] G,[E,D] | z [E,A,C] z [F,A,D] z [G,D] | z [E,A,C] z2 ::[K:D] F,G, | A,B, CD EF | %24
[K:treble] z z2 G/F/ EE/D/ | C[A,C] z [A,C] z [A,C] |[K:bass] D2 D,A,/G,/ F, z | z6 | B,6 | %29
 [CE]2 D2 [CE]2 | A,2 A,, z ::[K:treble] [A,C][B,D] | [CE] [CE]2 [DF] [A,C][B,D] | %33
 [CE] [CE]2 [DF] [A,C][B,D] | [CE][DF] [EG][DF] [CE][B,D] | (6:4:6C/D/C/B,/C/D/ C z [A,C][B,D] | %36
 [CE] [CE]2 [DF] [A,C][B,D] | [CE] [CE]2 [DF] [A,C][B,D] | [CE][DF] [EG][DF] [EG][CE] | %39
 D(3C/D/E/ F z z2 | z6 | z2 z G/F/ EE/D/ | C[A,C] z [A,C] z [A,C] |[K:bass] D2 D, z z2 | z6 | %45
 G,,2 G,2 G,2 | F,2 G,2 A,2 | F,A, F, z :| %48
V:3
 z2 | A,, z A,, z A,, z | E, z E, z E, z | E,, z E,, z E,, z | A,, z A,, z A,, z | %5
 B,, z B,, z ^D, z | B,, z B,, z ^D, z | E, z A,, z B,, z | E, z E,, z :: z z | z z G,, z A,, z | %11
 E,, z z2 z2 | z2 G,, z A,, z | E,, z z2 z2 | A,, z A,, z A,, z | E, z E, z E, z | %16
 E,, z E,, z E,, z | A,, z A,, z D,, z | E,, z z2 z2 | E,, z z2 z2 | A,, z D, z E, z | %21
 A,, z A,, z ::[K:D] z2 | z6 | z6 | z2 A,, z G,, z | D,2 D,, z z2 | z6 | D,2 D2 D,2 | C,2 D,2 E,2 | %30
 A,2 A,, z :: z2 | A,2 A,, z z2 | A,2 A,, z z2 | A,6 | A,3 z A,, z | A,2 A,, z z2 | A,2 A,, z z2 | %38
 A,6 | D,4 z2 | z6 | A,,2 A, z z2 | z2 A,, z A,, z | D,2 D,, z z2 | z6 | G,,6 | F,,2 G,,2 A,,2 | %47
 D,2 D,, z :| %48

